THStack/nostackb.svg

<svg xmlns="http://www.w3.org/2000/svg" viewBox="0 0 1200 800" preserveAspectRatio="none" width="1200" height="800">
 <path d="M0,0H1200V800H0Z" style="fill: white;"></path>
 <g>
  <g transform="translate(120,80)">
   <path d="M0,0H960V640H0Z" style="fill: white; stroke: black; stroke-width: 1;"></path>
   <g>
    <path d="M0,0v640M240,0v640M480,0v640M720,0v640M960,0v640" style="stroke: black; stroke-width: 1; stroke-dasharray: 1,2;"></path>
   </g>
   <svg x="0" y="0" overflow="hidden" width="960" height="640" viewBox="0 0 960 640">
    <g>
     <path d="M3,639h30v1h-30zM99,625h30v15h-30zM195,541h30v99h-30zM291,312h30v328h-30zM387,30h30v610h-30zM483,39h30v601h-30zM579,315h30v325h-30zM675,538h30v102h-30zM771,625h30v15h-30zM867,639h30v1h-30z" style="fill: red;"></path>
    </g>
    <g>
     <path d="M33,639h30v1h-30zM129,629h30v11h-30zM225,569h30v71h-30zM321,384h30v256h-30zM417,193h30v447h-30zM513,187h30v453h-30zM609,386h30v254h-30zM705,573h30v67h-30zM801,628h30v12h-30zM897,639h30v1h-30z" style="fill: blue;"></path>
    </g>
    <g>
     <path d="M63,639h30v1h-30zM159,632h30v8h-30zM255,587h30v53h-30zM351,479h30v161h-30zM447,341h30v299h-30zM543,332h30v308h-30zM639,477h30v163h-30zM735,593h30v47h-30zM831,632h30v8h-30zM927,639h30v1h-30z" style="fill: green;"></path>
    </g>
   </svg>
   <g>
    <g transform="translate(0,640)">
     <path d="M0,0h960M0,-24v24m240,-24v24m240,-24v24m240,-24v24m240,-24v24" style="stroke: black; stroke-width: 1;"></path>
     <g font-family="Arial" font-size="28" space="preserve" fill="black" text-anchor="middle">
      <text dy=".8em" transform="translate(0,6)">
       -4
      </text>
      <text dy=".8em" transform="translate(240,6)">
       -2
      </text>
      <text dy=".8em" transform="translate(480,6)">
       0
      </text>
      <text dy=".8em" transform="translate(720,6)">
       2
      </text>
      <text dy=".8em" transform="translate(960,6)">
       4
      </text>
     </g>
    </g>
    <g>
     <path d="M0,0v640M36,640h-36m18,-21h-18m18,-21h-18m18,-21h-18m18,-21h-18m36,-21h-36m18,-21h-18m18,-21h-18m18,-21h-18m18,-21h-18m36,-21h-36m18,-21h-18m18,-21h-18m18,-21h-18m18,-21h-18m36,-21h-36m18,-21h-18m18,-21h-18m18,-21h-18m18,-21h-18m36,-20h-36m18,-21h-18m18,-21h-18m18,-21h-18m18,-21h-18m36,-21h-36m18,-21h-18m18,-21h-18m18,-21h-18m18,-21h-18m36,-21h-36" style="stroke: black; stroke-width: 1;"></path>
     <g font-family="Arial" font-size="28" space="preserve" fill="black" text-anchor="end">
      <text dy=".4em" transform="translate(-4,640)">
       0
      </text>
      <text dy=".4em" transform="translate(-4,535)">
       1000
      </text>
      <text dy=".4em" transform="translate(-4,430)">
       2000
      </text>
      <text dy=".4em" transform="translate(-4,325)">
       3000
      </text>
      <text dy=".4em" transform="translate(-4,221)">
       4000
      </text>
      <text dy=".4em" transform="translate(-4,116)">
       5000
      </text>
      <text dy=".4em" transform="translate(-4,11)">
       6000
      </text>
     </g>
    </g>
   </g>
  </g>
  <g transform="translate(185,4)" font-family="Arial" font-size="39" space="preserve">
   <g transform="translate(20,40) scale(0.920)">
    <text fill="black" font-size="43">
     Stacked 1D histograms: option
    </text>
    <text font-family="Courier New" font-size="43" space="preserve" fill="black" transform="translate(600)">
     "nostackb"
    </text>
   </g>
  </g>
 </g>
</svg>

<svg xmlns="http://www.w3.org/2000/svg" viewBox="0 0 1200 800" preserveAspectRatio="none" width="1200" height="800">
 <path d="M0,0H1200V800H0Z" style="fill: white;"></path>
 <g>
  <g transform="translate(120,80)">
   <path d="M0,0H960V640H0Z" style="fill: white; stroke: black; stroke-width: 1;"></path>
   <g>
    <path d="M0,0v640M240,0v640M480,0v640M720,0v640M960,0v640" style="stroke: black; stroke-width: 1; stroke-dasharray: 1,2;"></path>
   </g>
   <svg x="0" y="0" overflow="hidden" width="960" height="640" viewBox="0 0 960 640">
    <g>
     <path d="M3,639h30v1h-30zM99,625h30v15h-30zM195,541h30v99h-30zM291,312h30v328h-30zM387,30h30v610h-30zM483,39h30v601h-30zM579,315h30v325h-30zM675,538h30v102h-30zM771,625h30v15h-30zM867,639h30v1h-30z" style="fill: red;"></path>
    </g>
    <g>
     <path d="M33,639h30v1h-30zM129,629h30v11h-30zM225,569h30v71h-30zM321,384h30v256h-30zM417,193h30v447h-30zM513,187h30v453h-30zM609,386h30v254h-30zM705,573h30v67h-30zM801,628h30v12h-30zM897,639h30v1h-30z" style="fill: blue;"></path>
    </g>
    <g>
     <path d="M63,639h30v1h-30zM159,632h30v8h-30zM255,587h30v53h-30zM351,479h30v161h-30zM447,341h30v299h-30zM543,332h30v308h-30zM639,477h30v163h-30zM735,593h30v47h-30zM831,632h30v8h-30zM927,639h30v1h-30z" style="fill: green;"></path>
    </g>
   </svg>
   <g>
    <g transform="translate(0,640)">
     <path d="M0,0h960M0,-24V0M240,-24V0M480,-24V0M720,-24V0M960,-24V0" style="stroke: black; stroke-width: 1;"></path>
     <g font-family="Arial" font-size="28" space="preserve" fill="black" text-anchor="middle">
      <text dy=".8em" transform="translate(0,6)">
       -4
      </text>
      <text dy=".8em" transform="translate(240,6)">
       -2
      </text>
      <text dy=".8em" transform="translate(480,6)">
       0
      </text>
      <text dy=".8em" transform="translate(720,6)">
       2
      </text>
      <text dy=".8em" transform="translate(960,6)">
       4
      </text>
     </g>
    </g>
    <g>
     <path d="M0,0v640M36,640H0M18,619H0M18,598H0M18,577H0M18,556H0M36,535H0M18,514H0M18,493H0M18,472H0M18,451H0M36,430H0M18,409H0M18,388H0M18,367H0M18,346H0M36,325H0M18,304H0M18,283H0M18,262H0M18,241H0M36,221H0M18,200H0M18,179H0M18,158H0M18,137H0M36,116H0M18,95H0M18,74H0M18,53H0M18,32H0M36,11H0" style="stroke: black; stroke-width: 1;"></path>
     <g font-family="Arial" font-size="28" space="preserve" fill="black" text-anchor="end">
      <text dy=".4em" transform="translate(-4,640)">
       0
      </text>
      <text dy=".4em" transform="translate(-4,535)">
       1000
      </text>
      <text dy=".4em" transform="translate(-4,430)">
       2000
      </text>
      <text dy=".4em" transform="translate(-4,325)">
       3000
      </text>
      <text dy=".4em" transform="translate(-4,221)">
       4000
      </text>
      <text dy=".4em" transform="translate(-4,116)">
       5000
      </text>
      <text dy=".4em" transform="translate(-4,11)">
       6000
      </text>
     </g>
    </g>
   </g>
  </g>
  <g transform="translate(185,4)" font-family="Arial" font-size="39" space="preserve">
   <g transform="translate(20,40) scale(0.920)">
    <text fill="black" font-size="43">
     Stacked 1D histograms: option
    </text>
    <text font-family="Courier New" font-size="43" space="preserve" fill="black" transform="translate(600)">
     "nostackb"
    </text>
   </g>
  </g>
 </g>
</svg>
